X: 5854
T: Calliope House
R: jig
M: 6/8
K: Dmajor
|:dAA fAA|eAA fed|Bee e2d|efd BdB|ABA A2F|
A2B d2e|1 faf fed|e3 ABc:|2 faf edB|d3 def||
|:a2a faa|eaa def|g3 fgf|efd BdB|ABA A2F|
A2B d2e|1 faf fed|efe efg:|2 faf edB|d3 A2d||

